X: 31
T: Old Horse and Buggy
B: canberra pickers and fiddlers
B: tunes
M:C|
L:1/8
R: reel
Q: 1/4=100
K:A
V:1 
|:EF|A2 A2 cBAA|c2e4 EF|A2A2 cBAA|F2E4 EF|
A2 Ac BABA|c2e4ef |e2c2cBAc | B2A4 :|
|:ce|f2f=g fede |f a2fa3f|e3f ecBA | c e2 ce2 ce|
f2f=g fede|f a2fa3f|e2c2 cBAc|B2A4:|
% abcbook-tune_id 63da5934ef391069438a638d
% abcbook-tune_composer_id 
% abcbook-link-0 https://www.youtube.com/watch?v=emYUjoMdOTY
% abcbook-link-end-at-0 229
% abcbook-boost 0
% abcbook-difficulty 0
% abcbook-tags canberra pickers and fiddlers,old time tunes,© free
% abcbook-tablature 
% abcbook-transpose 
% abcbook-tuning AEAE
% abcbook-lastupdated 1677373072746
% abcbook-src-url https://tunebook.net/scrape/tunes.abc
% abcbook-soundfonts 
% abcbook-repeats 1
%%gchordfont "itim-music,Itim" 20

